teeny/solid/minimise.svg

<svg width="15" height="15" viewBox="0 0 15 15" fill="none" xmlns="http://www.w3.org/2000/svg">
<path fill-rule="evenodd" clip-rule="evenodd" d="M13.8536 1.85356L10.7071 5.00001L13 5.00001V6.00001L9 6.00001V2.00001H10V4.2929L13.1464 1.14645L13.8536 1.85356ZM4.29289 5.00001L1.14645 1.85356L1.85355 1.14645L5 4.2929L5 2.00001L6 2.00001V6.00001L2 6.00001L2 5.00001L4.29289 5.00001ZM2 9.00001L6 9.00001L6 13H5L5 10.7071L1.85355 13.8536L1.14645 13.1465L4.29289 10L2 10L2 9.00001ZM9 9.00001L13 9.00001V10L10.7071 10L13.8536 13.1465L13.1464 13.8536L9.99999 10.7071L9.99999 13L8.99999 13L9 9.00001Z" fill="black"/>
</svg>

<svg viewBox="0 0 15 15" xmlns="http://www.w3.org/2000/svg"><path fill-rule="evenodd" d="M13.85 1.85L10.7 4.99h2.29v1h-4v-4h1v2.29l3.14-3.15 .7.7ZM4.28 4.99L1.13 1.84l.7-.71 3.14 3.14v-2.3h1v4h-4v-1h2.29Zm-2.3 4h4v3.99h-1v-2.3l-3.15 3.14 -.71-.71 3.14-3.15h-2.3v-1Zm7 0h4v.99h-2.3l3.14 3.14 -.71.7 -3.15-3.15v2.29h-1l0-4Z"/></svg>
